map_marker_monochrome/openmoji_web_syndication.svg

<svg xmlns="http://www.w3.org/2000/svg" width="24" height="24" viewBox="0 0 24 24"> <g transform="scale(0.48)">
  
  <g
     id="line"
     transform="translate(-11,-11)">
    <path
       fill="none"
       stroke="#000"
       stroke-linejoin="round"
       stroke-miterlimit="10"
       stroke-width="2"
       d="m 59.0349,60 h -46.07 C 12.7092,59.9992 12.4642,59.8973 12.2834,59.7164 12.1026,59.5356 12.0007,59.2906 12,59.0349 v -46.07 c 8e-4,-0.2557 0.1027,-0.5007 0.2836,-0.6815 0.1808,-0.1808 0.4258,-0.2827 0.6815,-0.2834 h 46.07 c 0.2557,8e-4 0.5007,0.1027 0.6815,0.2836 0.1808,0.1808 0.2827,0.4258 0.2834,0.6815 v 46.07 c -8e-4,0.2557 -0.1027,0.5007 -0.2836,0.6815 -0.1808,0.1808 -0.4258,0.2827 -0.6815,0.2834 z"
       id="path2" />
    <path
       fill="none"
       stroke="#000"
       stroke-linecap="round"
       stroke-linejoin="round"
       stroke-width="2"
       d="M 29,47.5 C 29,49.9853 26.9853,52 24.5,52 22.0147,52 20,49.9853 20,47.5 20,45.0147 22.0147,43 24.5,43 c 2.4853,0 4.5,2.0147 4.5,4.5 z"
       id="path4" />
    <path
       fill="none"
       fill-rule="evenodd"
       stroke="#000"
       stroke-linejoin="round"
       stroke-width="2"
       d="M 41,52 C 41,40.402 31.598,31 20,31 v 6 c 8.2843,0 15,6.7157 15,15 z"
       clip-rule="evenodd"
       id="path6" />
    <path
       fill="none"
       fill-rule="evenodd"
       stroke="#000"
       stroke-linejoin="round"
       stroke-width="2"
       d="M 52,52 C 52,34.3269 37.6731,20 20,20 v 6.0012 c 14.1062,0.1342 25.5,11.6109 25.5,25.7488 0,0.0834 -4e-4,0.1668 -0.0012,0.25 z"
       clip-rule="evenodd"
       id="path8" />
  </g>
</g></svg>

<svg xmlns="http://www.w3.org/2000/svg" width="24" height="24" viewBox="0 0 24 24"> <g transform="scale(0.333333333)">  <g id="line">
    <path fill="none" stroke="#000000" stroke-linejoin="round" stroke-miterlimit="10" stroke-width="2" d="M59.0349 60H12.9649C12.7092 59.9992 12.4642 59.8973 12.2834 59.7164C12.1026 59.5356 12.0007 59.2906 12 59.0349V12.9649C12.0008 12.7092 12.1027 12.4642 12.2836 12.2834C12.4644 12.1026 12.7094 12.0007 12.9651 12H59.0351C59.2908 12.0008 59.5358 12.1027 59.7166 12.2836C59.8974 12.4644 59.9993 12.7094 60 12.9651V59.0351C59.9992 59.2908 59.8973 59.5358 59.7164 59.7166C59.5356 59.8974 59.2906 59.9993 59.0349 60V60Z"/>
    <path fill="none" stroke="#000000" stroke-linecap="round" stroke-linejoin="round" stroke-width="2" d="M29 47.5C29 49.9853 26.9853 52 24.5 52C22.0147 52 20 49.9853 20 47.5C20 45.0147 22.0147 43 24.5 43C26.9853 43 29 45.0147 29 47.5Z"/>
    <path fill="none" fill-rule="evenodd" stroke="#000" stroke-linejoin="round" stroke-width="2" d="M41 52C41 40.402 31.598 31 20 31V37C28.2843 37 35 43.7157 35 52H41Z" clip-rule="evenodd"/>
    <path fill="none" fill-rule="evenodd" stroke="#000" stroke-linejoin="round" stroke-width="2" d="M52 52C52 34.3269 37.6731 20 20 20V26.0012C34.1062 26.1354 45.5 37.6121 45.5 51.75C45.5 51.8334 45.4996 51.9168 45.4988 52H52Z" clip-rule="evenodd"/>
  </g></g></svg>
